svg/fluentui-system-icons/ic_fluent_image_stack_20_filled.svg

<svg width="20" height="20" viewBox="0 0 20 20" fill="none" xmlns="http://www.w3.org/2000/svg">
<path d="M6 3C4.34315 3 3 4.34315 3 6V9H6.29289L8.76256 6.53033C9.44598 5.84691 10.554 5.84691 11.2374 6.53033L13.7071 9H17V6C17 4.34315 15.6569 3 14 3H6ZM17 10V14C17 15.4376 15.9888 16.639 14.6389 16.9318L11.2374 13.5303C10.554 12.8469 9.44598 12.8469 8.76256 13.5303L5.36108 16.9318C4.01117 16.639 3 15.4376 3 14V10H17ZM6.70711 17H13.2929L10.5303 14.2374C10.2374 13.9445 9.76256 13.9445 9.46967 14.2374L6.70711 17ZM7.70711 9H12.2929L10.5303 7.23744C10.2374 6.94454 9.76256 6.94454 9.46967 7.23744L7.70711 9ZM15.5 5.5C15.5 6.05228 15.0523 6.5 14.5 6.5C13.9477 6.5 13.5 6.05228 13.5 5.5C13.5 4.94772 13.9477 4.5 14.5 4.5C15.0523 4.5 15.5 4.94772 15.5 5.5ZM14.5 13.5C15.0523 13.5 15.5 13.0523 15.5 12.5C15.5 11.9477 15.0523 11.5 14.5 11.5C13.9477 11.5 13.5 11.9477 13.5 12.5C13.5 13.0523 13.9477 13.5 14.5 13.5Z" fill="#212121"/>
</svg>

<svg xmlns="http://www.w3.org/2000/svg" width="20" height="20"><path d="M6 3a3 3 0 0 0-3 3v3h3.293l2.47-2.47a1.75 1.75 0 0 1 2.474 0L13.707 9H17V6a3 3 0 0 0-3-3H6Zm11 7v4a3.001 3.001 0 0 1-2.361 2.932l-3.402-3.402a1.75 1.75 0 0 0-2.474 0L5.36 16.932A3.001 3.001 0 0 1 3 14v-4h14ZM6.707 17h6.586l-2.763-2.763a.75.75 0 0 0-1.06 0L6.707 17Zm1-8h4.586L10.53 7.237a.75.75 0 0 0-1.06 0L7.707 9ZM15.5 5.5a1 1 0 1 1-2 0 1 1 0 0 1 2 0Zm-1 8a1 1 0 1 0 0-2 1 1 0 0 0 0 2Z"/></svg>
